svg/icon/fil.svg

<svg xmlns="http://www.w3.org/2000/svg" xmlns:xlink="http://www.w3.org/1999/xlink" width="32" height="32" viewBox="0 0 32 32"><defs><linearGradient id="fil-c" x1="50%" x2="50%" y1="0%" y2="100%"><stop offset="0%" stop-color="#FFF" stop-opacity=".5"/><stop offset="100%" stop-opacity=".5"/></linearGradient><circle id="fil-b" cx="16" cy="15" r="15"/><filter id="fil-a" width="111.7%" height="111.7%" x="-5.8%" y="-4.2%" filterUnits="objectBoundingBox"><feOffset dy=".5" in="SourceAlpha" result="shadowOffsetOuter1"/><feGaussianBlur in="shadowOffsetOuter1" result="shadowBlurOuter1" stdDeviation=".5"/><feComposite in="shadowBlurOuter1" in2="SourceAlpha" operator="out" result="shadowBlurOuter1"/><feColorMatrix in="shadowBlurOuter1" values="0 0 0 0 0 0 0 0 0 0 0 0 0 0 0 0 0 0 0.199473505 0"/></filter><path id="fil-e" d="M15.9320926,11.9075167 C16.3037997,10.345126 16.7526772,8.94035269 17.2280487,8.02279722 C17.4032093,7.5846668 18.1128082,6.53616472 18.8918843,5.84277847 C20.188967,4.68836065 21.6440021,4.3949124 23.1586261,5.34556597 L23.0257231,5.55731298 L23.1586495,5.34558071 C23.9316236,5.83085728 24.2420305,6.32987419 24.1063209,6.80012747 C24.0053534,7.14999414 23.6228508,7.42911422 23.418183,7.40104145 C23.1180986,7.43037702 22.8162749,7.37055163 22.5283594,7.15913214 C22.3061712,6.99597692 22.1219924,6.75738884 21.9866433,6.43792365 C21.7752349,5.93856745 21.4969128,5.76793417 21.1556853,5.80745446 C20.9088941,5.83603733 20.6217992,5.9943592 20.5310772,6.1003308 C20.4869025,6.14950003 20.3300046,6.32155518 20.2958413,6.3595383 C20.0821864,6.59708216 19.9487415,6.76880792 19.812481,6.99539196 C19.3355459,7.78847537 18.8970729,9.24072358 18.2879226,12.2523098 L22.3242295,12.8431209 L22.1020856,14.4602097 L18.0056878,13.8604087 L17.8305377,14.9238563 C17.8230026,14.9723033 17.8082127,15.0626214 17.7862483,15.1895799 C17.7622515,15.3282858 17.7352232,15.4782997 17.705185,15.6381365 L21.8415821,16.2440295 L21.6045274,17.8586989 L17.3722806,17.2392489 C16.8832098,19.3169182 16.2392911,21.5436922 15.7838317,22.4229052 C15.6081189,22.8616207 14.8989926,23.9092714 14.1199589,24.6025982 C12.822827,25.7570237 11.36783,26.0505358 9.85328018,25.0999711 C9.08019872,24.6145826 8.76977173,24.1154934 8.90553033,23.6451986 C9.00652945,23.2953176 9.38908467,23.0161985 9.59374218,23.0442738 C9.89382669,23.0149297 10.1956735,23.0748145 10.4835906,23.2864026 C10.7056603,23.4496 10.8897496,23.6882029 11.0250277,24.0075831 C11.2365356,24.5068695 11.5149068,24.6775001 11.856097,24.6379809 C12.102878,24.6093969 12.3899246,24.451048 12.4806409,24.3449535 C13.3884834,23.3347804 14.1069762,21.3885942 15.0162013,16.8946379 L10.9796459,16.3030962 L11.2017963,14.6863119 L15.2982307,15.2858382 L15.4735609,14.2228052 C15.4810675,14.1743379 15.4958138,14.0839915 15.5177352,13.9569889 C15.5416896,13.8182078 15.5686906,13.6680998 15.5987209,13.5081488 L11.4782996,12.9049384 L11.7153448,11.289982 L15.9320926,11.9075167 Z"/><filter id="fil-d" width="122.9%" height="116.8%" x="-11.5%" y="-6%" filterUnits="objectBoundingBox"><feOffset dy=".5" in="SourceAlpha" result="shadowOffsetOuter1"/><feGaussianBlur in="shadowOffsetOuter1" result="shadowBlurOuter1" stdDeviation=".5"/><feColorMatrix in="shadowBlurOuter1" values="0 0 0 0 0 0 0 0 0 0 0 0 0 0 0 0 0 0 0.204257246 0"/></filter></defs><g fill="none" fill-rule="evenodd"><g fill-rule="nonzero"><use fill="#000" filter="url(#fil-a)" xlink:href="#fil-b"/><use fill="#42C1CA" fill-rule="evenodd" xlink:href="#fil-b"/><use fill="url(#fil-c)" fill-rule="evenodd" style="mix-blend-mode:soft-light" xlink:href="#fil-b"/><circle cx="16" cy="15" r="14.5" stroke="#000" stroke-opacity=".097"/></g><g fill-rule="nonzero"><use fill="#000" filter="url(#fil-d)" xlink:href="#fil-e"/><use fill="#FFF" fill-rule="evenodd" xlink:href="#fil-e"/></g></g></svg>

<svg xmlns="http://www.w3.org/2000/svg" xmlns:xlink="http://www.w3.org/1999/xlink" width="32" height="32" viewBox="0 0 32 32"><defs><linearGradient id="c" x1="50%" x2="50%" y1="0%" y2="100%"><stop offset="0%" stop-color="#FFF" stop-opacity=".5"/><stop offset="100%" stop-opacity=".5"/></linearGradient><circle id="b" cx="16" cy="15" r="15"/><filter id="a" width="111.7%" height="111.7%" x="-5.8%" y="-4.2%" filterUnits="objectBoundingBox"><feOffset dy=".5" in="SourceAlpha" result="shadowOffsetOuter1"/><feGaussianBlur in="shadowOffsetOuter1" result="shadowBlurOuter1" stdDeviation=".5"/><feComposite in="shadowBlurOuter1" in2="SourceAlpha" operator="out" result="shadowBlurOuter1"/><feColorMatrix in="shadowBlurOuter1" values="0 0 0 0 0 0 0 0 0 0 0 0 0 0 0 0 0 0 0.199473505 0"/></filter><path id="e" d="M15.932 11.908c.372-1.563.82-2.968 1.296-3.885.175-.438.885-1.487 1.664-2.18 1.297-1.155 2.752-1.448 4.267-.497l-.133.211.133-.211c.773.485 1.083.984.947 1.454-.1.35-.483.63-.688.601-.3.03-.602-.03-.89-.242a1.685 1.685 0 0 1-.541-.721c-.212-.5-.49-.67-.831-.63-.247.028-.534.186-.625.292l-.235.26a3.894 3.894 0 0 0-.484.635c-.476.793-.915 2.246-1.524 5.257l4.036.591-.222 1.617-4.096-.6-.175 1.064-.045.266c-.024.138-.05.288-.08.448l4.136.606-.237 1.615-4.233-.62c-.489 2.078-1.133 4.305-1.588 5.184-.176.439-.885 1.486-1.664 2.18-1.297 1.154-2.752 1.448-4.267.497-.773-.485-1.083-.985-.947-1.455.1-.35.483-.629.688-.6.3-.03.602.03.89.241.222.164.406.402.541.722.212.499.49.67.831.63.247-.029.534-.187.625-.293.907-1.01 1.626-2.956 2.535-7.45l-4.036-.592.222-1.617 4.096.6.176-1.063a31.19 31.19 0 0 1 .125-.715l-4.12-.603.236-1.615 4.217.618z"/><filter id="d" width="122.9%" height="116.8%" x="-11.5%" y="-6%" filterUnits="objectBoundingBox"><feOffset dy=".5" in="SourceAlpha" result="shadowOffsetOuter1"/><feGaussianBlur in="shadowOffsetOuter1" result="shadowBlurOuter1" stdDeviation=".5"/><feColorMatrix in="shadowBlurOuter1" values="0 0 0 0 0 0 0 0 0 0 0 0 0 0 0 0 0 0 0.204257246 0"/></filter></defs><g fill="none"><use fill="#000" filter="url(#a)" xlink:href="#b"/><use fill="#42C1CA" fill-rule="evenodd" xlink:href="#b"/><use fill="url(#c)" fill-rule="evenodd" style="mix-blend-mode:soft-light" xlink:href="#b"/><circle cx="16" cy="15" r="14.5" stroke="#000" stroke-opacity=".097"/><use fill="#000" filter="url(#d)" xlink:href="#e"/><use fill="#FFF" fill-rule="evenodd" xlink:href="#e"/></g></svg>
